humanity-icon-theme/Humanity/animations/22/brasero-disc-45.svg

<?xml version="1.0" encoding="UTF-8" standalone="no"?>
<!-- Created with Inkscape (http://www.inkscape.org/) -->
<svg
   xmlns:svg="http://www.w3.org/2000/svg"
   xmlns="http://www.w3.org/2000/svg"
   xmlns:xlink="http://www.w3.org/1999/xlink"
   version="1.0"
   width="22"
   height="22"
   id="svg2">
  <defs
     id="defs4">
    <linearGradient
       id="linearGradient3587-6-5">
      <stop
         id="stop3589-9-2"
         style="stop-color:#000000;stop-opacity:1"
         offset="0" />
      <stop
         id="stop3591-7-4"
         style="stop-color:#363636;stop-opacity:1"
         offset="1" />
    </linearGradient>
    <linearGradient
       x1="15.669166"
       y1="-2.6219723"
       x2="15.669166"
       y2="11.969362"
       id="linearGradient3170"
       xlink:href="#linearGradient3587-6-5"
       gradientUnits="userSpaceOnUse"
       gradientTransform="matrix(0.9302326,0,0,1.2359551,-11.575969,5.1536003)" />
    <linearGradient
       x1="35.007519"
       y1="23.178743"
       x2="35.007519"
       y2="4.9945626"
       id="linearGradient3173"
       xlink:href="#linearGradient3587-6-5"
       gradientUnits="userSpaceOnUse"
       gradientTransform="translate(-25.785715,-3.035714)" />
  </defs>
  <path
     d="M 11,4 C 6.5840001,4 2.9999998,7.5840001 3,12 C 3,16.416 6.5840002,20 11,20 C 15.416,20 19,16.416 19,12 C 19,7.5840001 15.416,4.0000002 11,4 z M 11,9 C 12.656,9 14,10.344 14,12 C 14,13.656 12.656,15 11,15 C 9.344,15 8,13.656 8,12 C 8.0000001,10.344 9.344,9 11,9 z"
     id="path3229"
     style="opacity:0.6;fill:#ffffff;fill-opacity:1;fill-rule:evenodd;stroke:none;stroke-width:1;stroke-linecap:butt;stroke-linejoin:miter;marker:none;marker-start:none;marker-mid:none;marker-end:none;stroke-miterlimit:4;stroke-dasharray:none;stroke-dashoffset:0;stroke-opacity:1;visibility:visible;display:inline;overflow:visible;enable-background:accumulate" />
  <path
     d="M 11,3 C 6.5840001,3 2.9999998,6.5840001 3,11 C 3,15.416 6.5840002,19 11,19 C 11.897,19 12.75722,18.835186 13.5625,18.5625 L 12.03125,13.8125 C 11.707095,13.932473 11.3657,14 11,14 C 9.344,14 8,12.656 8,11 C 8.0000001,9.344 9.344,8 11,8 L 11,3 z M 19,11 C 19,11.329718 18.976324,11.649418 18.9375,11.96875 C 18.976251,11.649709 19,11.329445 19,11 z M 16.375,16.90625 C 16.197141,17.067747 16.004386,17.229864 15.8125,17.375 C 16.008162,17.22697 16.193944,17.071259 16.375,16.90625 z M 14.6875,18.09375 C 14.413435,18.23883 14.128174,18.359345 13.84375,18.46875 C 14.134419,18.358176 14.414161,18.23611 14.6875,18.09375 z"
     id="path3170"
     style="opacity:0.41999996;fill:url(#linearGradient3173);fill-opacity:1;fill-rule:evenodd;stroke:none;stroke-width:1;stroke-linecap:butt;stroke-linejoin:miter;marker:none;marker-start:none;marker-mid:none;marker-end:none;stroke-miterlimit:4;stroke-dasharray:none;stroke-dashoffset:0;stroke-opacity:1;visibility:visible;display:inline;overflow:visible;enable-background:accumulate" />
  <path
     d="M 11,3 L 11,8 C 12.656,8.0000001 14,9.344 14,11 C 14,11.987512 13.518268,12.859473 12.78125,13.40625 C 12.543332,13.581954 12.29569,13.717085 12.03125,13.8125 L 13.5625,18.59375 C 14.328917,18.33481 15.064773,17.943544 15.75,17.4375 C 17.720951,15.979935 19,13.637745 19,11 C 19,6.5840001 15.416,3.0000002 11,3 z"
     id="path3288"
     style="opacity:0.7;fill:url(#linearGradient3170);fill-opacity:1;fill-rule:nonzero;stroke:none;stroke-width:1;stroke-linecap:butt;stroke-linejoin:miter;marker:none;marker-start:none;marker-mid:none;marker-end:none;stroke-miterlimit:4;stroke-dasharray:none;stroke-dashoffset:0;stroke-opacity:1;visibility:visible;display:inline;overflow:visible;enable-background:accumulate" />
</svg>

<?xml version="1.0" encoding="UTF-8" standalone="no"?>
<!-- Created with Inkscape (http://www.inkscape.org/) -->
<svg id="svg2" xmlns="http://www.w3.org/2000/svg" height="22" width="22" version="1.0" xmlns:xlink="http://www.w3.org/1999/xlink">
 <defs id="defs4">
  <linearGradient id="linearGradient3587-6-5">
   <stop id="stop3589-9-2" offset="0"/>
   <stop id="stop3591-7-4" style="stop-color:#363636" offset="1"/>
  </linearGradient>
  <linearGradient id="linearGradient3170" y2="11.969" xlink:href="#linearGradient3587-6-5" gradientUnits="userSpaceOnUse" x2="15.669" gradientTransform="matrix(.93023 0 0 1.236 -11.576 5.1536)" y1="-2.622" x1="15.669"/>
  <linearGradient id="linearGradient3173" y2="4.9946" xlink:href="#linearGradient3587-6-5" gradientUnits="userSpaceOnUse" x2="35.008" gradientTransform="translate(-25.786 -3.0357)" y1="23.179" x1="35.008"/>
 </defs>
 <path id="path3229" style="opacity:.6;fill-rule:evenodd;fill:#fff" d="m11 4c-4.416 0-8 3.584-8 8s3.584 8 8 8 8-3.584 8-8-3.584-8-8-8zm0 5c1.656 0 3 1.344 3 3s-1.344 3-3 3-3-1.344-3-3 1.344-3 3-3z"/>
 <path id="path3170" style="opacity:0.42;fill-rule:evenodd;fill:url(#linearGradient3173)" d="m11 3c-4.416 0-8 3.584-8 8s3.584 8 8 8c0.897 0 1.757-0.165 2.562-0.438l-1.531-4.75c-0.324 0.12-0.665 0.188-1.031 0.188-1.656 0-3-1.344-3-3s1.344-3 3-3v-5zm8 8c0 0.33-0.024 0.649-0.062 0.969 0.038-0.319 0.062-0.64 0.062-0.969zm-2.625 5.906c-0.178 0.162-0.371 0.324-0.563 0.469 0.196-0.148 0.382-0.304 0.563-0.469zm-1.687 1.188c-0.275 0.145-0.56 0.265-0.844 0.375 0.29-0.111 0.57-0.233 0.844-0.375z"/>
 <path id="path3288" style="opacity:.7;fill:url(#linearGradient3170)" d="m11 3v5c1.656 0 3 1.344 3 3 0 0.988-0.482 1.859-1.219 2.406-0.238 0.176-0.485 0.311-0.75 0.406l1.531 4.782c0.767-0.259 1.503-0.65 2.188-1.156 1.971-1.458 3.25-3.8 3.25-6.438 0-4.416-3.584-8-8-8z"/>
</svg>
